icon-themes/sifr_svg/cmd/ca/lc_underline.svg

<svg viewBox="0 0 24 24" xmlns="http://www.w3.org/2000/svg"><path d="m10 2a5 5 0 0 0 -5 5 5 5 0 0 0 5 5h3a2 2 0 0 1 2 2 2 2 0 0 1 -2 2h-8v3h8a5 5 0 0 0 5-5 5 5 0 0 0 -5-5h-3a2 2 0 0 1 -2-2 2 2 0 0 1 2-2h7v-3zm-8 19v2h20v-2z" fill="#555753"/></svg>

<svg xmlns="http://www.w3.org/2000/svg" viewBox="0 0 24 24">
  <path
     style="fill:#555753"
     d="M 10 2 A 5 5 0 0 0 5 7 A 5 5 0 0 0 10 12 L 13 12 A 2 2 0 0 1 15 14 A 2 2 0 0 1 13 16 L 5 16 L 5 19 L 13 19 A 5 5 0 0 0 18 14 A 5 5 0 0 0 13 9 L 10 9 A 2 2 0 0 1 8 7 A 2 2 0 0 1 10 5 L 17 5 L 17 2 L 10 2 z M 2 21 L 2 23 L 22 23 L 22 21 L 2 21 z "
     />
</svg>
